!!!COM: Corelli, Arcangelo
!!!OPR: Sonata da camera
!!!OPS: 4
!!!ONM: 12
!!!OMV: 3
!!!OTL: Giga
!!!OMD: Allegro
**kern	**fb	**kern	**kern	**kern
*part4	*part4	*part3	*part2	*part1
*staff4	*	*staff3	*staff2	*staff1
*I"Cembalo	*	*I"Violone	*I"Violino II	*I"Violino I
*clefF4	*	*clefF4	*clefG2	*clefG2
*k[f#c#]	*	*k[f#c#]	*k[f#c#]	*k[f#c#]
*b:	*	*b:	*b:	*b:
*M4/4	*	*M4/4	*M4/4	*M12/8
*met(c)	*	*met(c)	*met(c)	*
=	=	=	=	=
2B	.	2B	4dd	(8ff#L
.	.	.	.	8dd)
.	.	.	4b	8bJ
.	.	.	.	(8f#L
2A	6	2A	4ff#	8dd)
.	.	.	.	8bJ
.	.	.	[4f#	8cc#L
.	.	.	.	8ff#
.	.	.	.	8cc#J
.	.	.	.	(8aL
.	.	.	.	8cc#)
.	.	.	.	8ff#J
=	=	=	=	=
2G	7	2G	4f#]	.
.	6	.	4e	.
4F#	#	4F#	4f#	(8bbL
.	.	.	.	8b)
4D	6	4D	[4ff#	8cc#J
.	.	.	.	(8ddL
.	.	.	.	8cc#)
.	.	.	.	8bJ
.	.	.	.	4.a#X
.	.	.	.	12r
.	.	.	.	(8bbL
.	.	.	.	8ff#J)
=	=	=	=	=
2E	9	2E	4ff#]	.
.	8	.	2ee	.
4F#	7 #	4F#	.	.
4G	5	4G	4dd	.
.	.	.	.	(8ggL
.	.	.	.	8ee)
.	.	.	.	8ff#J
.	.	.	.	(8ggL
.	.	.	.	8ee)
.	.	.	.	8ggJ
.	.	.	.	(8a#XL
.	.	.	.	8f#)
.	.	.	.	8a#J
.	.	.	.	8bL
.	.	.	.	8cc#
.	.	.	.	8ddJ
=	=	=	=	=
4E	6 5	4E	2cc#	.
4F#	#	4F#	.	.
4BB	.	4BB	4b	.
[4B	.	[4B	4b	.
.	.	.	.	(8gL
.	.	.	.	8b)
.	.	.	.	8cc#J
.	.	.	.	(8f#L
.	.	.	.	8b)
.	.	.	.	8a#XJ
.	.	.	.	4.b
.	.	.	.	12r
.	.	.	.	(8ddL
.	.	.	.	8bJ)
=	=	=	=	=
4B]	4 2	4B]	4cc#	.
4A#X	6	4A#X	4cc#	.
4B	.	4B	4f#	.
[4d	.	[4d	4dd	.
.	.	.	.	(8eeL
.	.	.	.	8cc#)
.	.	.	.	8eeJ
.	.	.	.	(8ff#L
.	.	.	.	8cc#)
.	.	.	.	8ff#J
.	.	.	.	(8ddL
.	.	.	.	8b)
.	.	.	.	8ddJ
.	.	.	.	(8ff#L
.	.	.	.	8dd)
.	.	.	.	8ff#J
=	=	=	=	=
4d]	4 2	4d]	4ee	.
4c#	6	4c#	4ee	.
2d	.	2d	2a	.
.	.	.	.	(8ggL
.	.	.	.	8ee)
.	.	.	.	8ggJ
.	.	.	.	(8aaL
.	.	.	.	8ee)
.	.	.	.	8aaJ
.	.	.	.	(8ff#L
.	.	.	.	8dd)
.	.	.	.	8ff#J
.	.	.	.	(8aaL
.	.	.	.	8ff#)
.	.	.	.	8aaJ
=	=	=	=	=
2d#X	6	2d#X	4ff#	.
.	.	.	4ff#	.
4E	.	4E	4b	.
4F#	#	4F#	4a#X	.
.	.	.	.	(8bbL
.	.	.	.	8ff#)
.	.	.	.	8bbJ
.	.	.	.	(8bbL
.	.	.	.	8ff#)
.	.	.	.	8bbJ
.	.	.	.	4.gg
.	.	.	.	4.ff#
=	=	=	=	=
2G	7	2G	2b	.
.	6	.	.	.
2F#	#	2F#	2a#X	.
.	.	.	.	8ff#L
.	.	.	.	8ee
.	.	.	.	8ddJ
.	.	.	.	4ee
.	.	.	.	8ff#
.	.	.	.	2.ff#
=:|!|:	=:|!|:	=:|!|:	=:|!|:	=:|!|:
2d	.	2d	2ff#	.
4c#	6	4c#	4ee	.
4A	.	4A	4cc#	.
.	.	.	.	(8aaL
.	.	.	.	8ff#)
.	.	.	.	8ggJ
.	.	.	.	(8aaL
.	.	.	.	8ff#)
.	.	.	.	8ggJ
.	.	.	.	(8aaL
.	.	.	.	8ee)
.	.	.	.	8aaJ
.	.	.	.	(8aaL
.	.	.	.	8ee)
.	.	.	.	8aaJ
=	=	=	=	=
4d	.	4d	4a	.
4r	.	4r	4r	.
2e	.	2e	2gg	.
.	.	.	.	(8ff#L
.	.	.	.	8aa)
.	.	.	.	8ff#J
.	.	.	.	(8ddL
.	.	.	.	8aa)
.	.	.	.	8ff#J
.	.	.	.	(8bbL
.	.	.	.	8gg)
.	.	.	.	8aaJ
.	.	.	.	(8bbL
.	.	.	.	8gg)
.	.	.	.	8aaJ
=	=	=	=	=
4d#X	6	4d#X	4ff#	.
4B	#	4B	4dd#X	.
4e	.	4e	4b	.
4r	.	4r	4r	.
.	.	.	.	(8bbL
.	.	.	.	8ff#)
.	.	.	.	8bbJ
.	.	.	.	(8bbL
.	.	.	.	8ff#)
.	.	.	.	8bbJ
.	.	.	.	(8ggL
.	.	.	.	8bb)
.	.	.	.	8ggJ
.	.	.	.	(8eeL
.	.	.	.	8gg)
.	.	.	.	8eeJ
=	=	=	=	=
2A	5 -	2A	4ee	.
.	6	.	4ccn	.
4B	#	4B	4f#	.
4G	6	4G	4b	.
.	.	.	.	8ccnL
.	.	.	.	8ee
.	.	.	.	8ccJ
.	.	.	.	8aL
.	.	.	.	8ff#
.	.	.	.	8eeJ
.	.	.	.	(8dd#XL
.	.	.	.	8cc)
.	.	.	.	8bJ
.	.	.	.	(8eeL
.	.	.	.	8b)
.	.	.	.	8eeJ
=	=	=	=	=
4A	6 5 #	4A	2aT	.
4B	7 #	4B	.	.
2E	-	2E	2g	.
.	.	.	.	(8cc#L
.	.	.	.	8dd#X)
.	.	.	.	8eeJ
.	.	.	.	(8f#L
.	.	.	.	8ee)
.	.	.	.	8dd#J
.	.	.	.	(8eL
.	.	.	.	8ee)
.	.	.	.	8ff#J
.	.	.	.	(8ggL
.	.	.	.	8ee)
.	.	.	.	8ff#J
=	=	=	=	=
2C#	5	2C#	2ee	.
2D	.	2D	2a	.
.	.	.	.	(8ggL
.	.	.	.	8bb)
.	.	.	.	8ggJ
.	.	.	.	(8eeL
.	.	.	.	8aa)
.	.	.	.	8eeJ
.	.	.	.	(8ff#L
.	.	.	.	8dd)
.	.	.	.	8eeJ
.	.	.	.	(8ff#L
.	.	.	.	8dd)
.	.	.	.	8eeJ
=	=	=	=	=
2AA#X	6	2AA#X	2cc#	.
4BB	.	4BB	4f#	.
4B	.	4B	4ff#	.
.	.	.	.	(8ff#L
.	.	.	.	8gg)
.	.	.	.	8ff#J
.	.	.	.	(8cc#L
.	.	.	.	8ff#)
.	.	.	.	8eeJ
.	.	.	.	(8ddL
.	.	.	.	8ff#)
.	.	.	.	8ddJ
.	.	.	.	(8bL
.	.	.	.	8dd)
.	.	.	.	8bJ
=	=	=	=	=
4E	n6	4E	4gg	.
4F#	7 #	4F#	4ff#	.
4G	.	4G	4b	.
4D	6	4D	4dd	.
.	.	.	.	(8ccnL
.	.	.	.	8ee)
.	.	.	.	8ccJ
.	.	.	.	(8a#XL
.	.	.	.	8ee)
.	.	.	.	8ff#J
.	.	.	.	(8ddL
.	.	.	.	8b)
.	.	.	.	8ddJ
.	.	.	.	8ff#L
.	.	.	.	8bb
.	.	.	.	8ff#J
=	=	=	=	=
4E	6 5 #	4E	4cc#	.
4F#	#	4F#	8r	.
.	.	.	8ff#	.
4BB	.	4BB	4dd	.
4D	6	4D	8r	.
.	.	.	8dd	.
.	.	.	.	(8gg#XL
.	.	.	.	8aa#X)
.	.	.	.	8bbJ
.	.	.	.	(8cc#L
.	.	.	.	8bb)
.	.	.	.	8aa#J
.	.	.	.	(8bL
.	.	.	.	8dd)
.	.	.	.	8bJ
.	.	.	.	(8f#L
.	.	.	.	8b)
.	.	.	.	8f#J
=	=	=	=	=
4E	.	4E	4b	.
4F#	6 4	4F#	8r	.
.	.	.	8dd	.
4G	6	4G	4b	.
4D	6	4D	8r	.
.	.	.	8dd	.
.	.	.	.	(8gL
.	.	.	.	8b)
.	.	.	.	8gJ
.	.	.	.	(8f#L
.	.	.	.	8b)
.	.	.	.	8f#J
.	.	.	.	8eL
.	.	.	.	8b
.	.	.	.	8eJ
.	.	.	.	8f#L
.	.	.	.	8b
.	.	.	.	8f#J
=	=	=	=	=
4E	.	4E	4b	.
4F#	#	4F#	8r	.
.	.	.	8f#	.
2BB	.	2BB	2d	.
.	.	.	.	(8gL
.	.	.	.	8b)
.	.	.	.	8gJ
.	.	.	.	(8f#L
.	.	.	.	8b)
.	.	.	.	8a#XJ
.	.	.	.	2.b
=:|!	=:|!	=:|!	=:|!	=:|!
*-	*-	*-	*-	*-
!!!system-decoration: [{s1,s2},s3,s4]
!!!YEM: CC BY-NC-SA 4.0; CCARH; DCML